X: 24493
T: Lucy Farr's
R: barndance
M: 4/4
K: Gmajor
|:A4 A4|ABcA F2 E2|c4 c4|cdec B3B|
cdec B2 A2|ABcA F2E2|EFAB ceec|B2 A2 A4:|
|:cdec B2 A2|ABcA F2 E2|EFAB ceec|c2 B2 B3B|
cdec B2 A2|ABcA F2 E2|EFAB ceec|B2 A2 A4:|

